!!!!SEGMENT: Sil2021-Ave_regina_celorum_II.krn
!!!id: Sil2021
!!!AGN: Motet
!!!SCT: Kirsch (1971)
!!!voices: 5
!!!COM: Andreas de Silva
!!!OTL: Ave regina celorum II
**kern	**kern	**kern	**kern	**kern
*part5	*part4	*part3	*part2	*part1
*staff5	*staff4	*staff3	*staff2	*staff1
*I"Bassus II	*I"Bassus I	*I"Tenor	*I"Altus	*I"Superius
*I'B. II	*I'B. I	*I'T	*I'A	*I'S
*clefF4	*clefF4	*clefGv2	*clefGv2	*clefG2
*k[b-]	*k[b-]	*k[b-]	*k[b-]	*k[b-]
*F:	*F:	*F:	*F:	*F:
*M2/1	*M2/1	*M2/1	*M2/1	*M2/1
*met(C|)	*met(C|)	*met(C|)	*met(C|)	*met(C|)
!!Section: Prima pars: Ave regina celorum
!!!OMD: Prima pars: Ave regina celorum
=1	=1	=1	=1	=1
1r	0r	[0F	0r	0r
[1FF	.	.	.	.
=2	=2	=2	=2	=2
2FF]	0r	0F]	0r	0r
2GG	.	.	.	.
2AA	.	.	.	.
2BB-y	.	.	.	.
=3	=3	=3	=3	=3
1.C	0r	1.E	0r	0r
2BB-y	.	2D	.	.
=4	=4	=4	=4	=4
2AA	0r	1E	0r	0r
2GG	.	.	.	.
2AA	.	1C	.	.
[2FF	.	.	.	.
=5	=5	=5	=5	=5
4FF]	0r	2D	0r	0r
4GG	.	.	.	.
4AA	.	1F	.	.
4FF	.	.	.	.
1GG	.	.	.	.
.	.	2E	.	.
=6	=6	=6	=6	=6
[0FF	1.F	[0F	1r	[0f
.	.	.	[1F	.
.	2G	.	.	.
=7	=7	=7	=7	=7
0FF]	2A	0F]	2F]	0f]
.	2B-y	.	2G	.
.	1c	.	2A	.
.	.	.	2B-y	.
=8	=8	=8	=8	=8
0r	2r	0r	1.c	1.e
.	2C	.	.	.
.	2AA	.	.	.
.	2BB-y	.	2B-y	2d
=9	=9	=9	=9	=9
0r	2.C	0r	2A	1e
.	.	.	1G	.
.	4D	.	.	.
.	2E	.	.	1c
.	2F	.	[2A	.
=10	=10	=10	=10	=10
0r	1D	0r	2A]	2d
.	.	.	4G	1f
.	.	.	4F	.
.	1C	.	1G	.
.	.	.	.	2e
=11	=11	=11	=11	=11
2.FF	2r	1r	1F	0f
.	1C	.	.	.
4GG	.	.	.	.
2AA	.	[1F	1r	.
[2BB-y	[2D	.	.	.
=12	=12	=12	=12	=12
2BB-]	2D]	1F]	0r	0r
2AA	2C	.	.	.
2BB-y	2D	1G	.	.
2C	2E	.	.	.
=13	=13	=13	=13	=13
0FF	1C	1A	2r	0r
.	.	.	2.F	.
.	2.F	1A	.	.
.	.	.	4G	.
.	.	.	4A	.
.	4G	.	4B-y	.
=14	=14	=14	=14	=14
0r	2A	0r	2c	0f
.	1B-y	.	1d	.
.	2A	.	2c	.
=15	=15	=15	=15	=15
0r	2B-y	2r	2d	1g
.	2c	1c	2e	.
.	1F	.	[1f	1a
.	.	[2d	.	.
=16	=16	=16	=16	=16
0r	1F	2d]	2f]	1a
.	.	1c	2f	.
.	1G	.	2.d	1g
.	.	2B-y	.	.
.	.	.	4e	.
=17	=17	=17	=17	=17
1FF	1F	1c	1f	1a
1BB-y	1r	1d	2.F	1b-y
.	.	.	4G	.
=18	=18	=18	=18	=18
2FF	1.F	2c	4A	2.a
.	.	.	4B-y	.
1F	.	2.A	1c	.
.	.	.	.	8gL
.	.	.	.	8fJ
.	.	.	.	2a
.	.	4B-y	.	.
2E	2G	2c	2c	[2g
=19	=19	=19	=19	=19
1D	2A	1F	1d	4g]
.	.	.	.	4f
.	2B-y	.	.	1f
1C	[1c	1G	2r	.
.	.	.	2G	2e
=20	=20	=20	=20	=20
0FF	1c]	1F	2A	0f
.	.	.	2F	.
.	1C	1r	[1A	.
=21	=21	=21	=21	=21
1r	1D	[0F	2A]	0r
.	.	.	2B-y	.
[1FF	1C	.	1c	.
=22	=22	=22	=22	=22
2FF]	0r	0F]	0r	0r
2GG	.	.	.	.
2AA	.	.	.	.
2BB-y	.	.	.	.
=23	=23	=23	=23	=23
1.C	0r	1.E	0r	0r
2BB-y	.	2D	.	.
=24	=24	=24	=24	=24
2AA	0r	1E	0r	0r
2GG	.	.	.	.
2AA	.	1C	.	.
[2FF	.	.	.	.
=25	=25	=25	=25	=25
4FF]	0r	2D	0r	0r
4GG	.	.	.	.
4AA	.	1F	.	.
4FF	.	.	.	.
1GG	.	.	.	.
.	.	2E	.	.
=26	=26	=26	=26	=26
[0FF	1.F	[0F	1r	[0f
.	.	.	[1F	.
.	2G	.	.	.
=27	=27	=27	=27	=27
0FF]	2A	0F]	2F]	0f]
.	2B-y	.	2G	.
.	1c	.	2A	.
.	.	.	2B-y	.
=28	=28	=28	=28	=28
0r	2r	0r	1.c	1.e
.	2C	.	.	.
.	2AA	.	.	.
.	2BB-y	.	2B-y	2d
=29	=29	=29	=29	=29
0r	2.C	0r	2A	1e
.	.	.	1G	.
.	4D	.	.	.
.	2E	.	.	1c
.	2F	.	[2A	.
=30	=30	=30	=30	=30
0r	1D	0r	2A]	2d
.	.	.	4G	1f
.	.	.	4F	.
.	1C	.	1G	.
.	.	.	.	2e
=31	=31	=31	=31	=31
2.FF	2r	1r	1F	0f
.	1C	.	.	.
4GG	.	.	.	.
2AA	.	[1F	1r	.
[2BB-y	[2D	.	.	.
=32	=32	=32	=32	=32
2BB-]	2D]	1F]	0r	0r
2AA	2C	.	.	.
2BB-y	2D	1G	.	.
2C	2E	.	.	.
=33	=33	=33	=33	=33
0FF	1C	1A	2r	0r
.	.	.	2.F	.
.	2.F	1A	.	.
.	.	.	4G	.
.	.	.	4A	.
.	4G	.	4B-y	.
=34	=34	=34	=34	=34
0r	2A	0r	2c	0f
.	1B-y	.	1d	.
.	2A	.	2c	.
=35	=35	=35	=35	=35
1r	2B-y	2r	2d	1g
.	2c	1c	2e	.
2r	1F	.	1f	1a
[2F	.	2A	.	.
=36	=36	=36	=36	=36
2F]	0r	1d	1.f	1a
2D	.	.	.	.
1F	.	1c	.	1a
.	.	.	2f	.
=37	=37	=37	=37	=37
1C	0r	2r	1e	1g
.	.	1c	.	.
1F	.	.	2r	1a
.	.	2A	[2f	.
=38	=38	=38	=38	=38
0BB-y	2r	0d	2f]	0b-y
.	1F	.	2d	.
.	.	.	1f	.
.	2D	.	.	.
=39	=39	=39	=39	=39
1.FF	1F	1c	1.f	2.a
.	.	.	.	8gL
.	.	.	.	8fJ
.	1C	2F	.	2a
2C	.	2G	2e	[2g
=40	=40	=40	=40	=40
2F	1r	2A	2c	4g]
.	.	.	.	4f
2BB-y	.	2B-y	2d	1f
1C	2r	1G	1c	.
.	[2C	.	.	2e
=41	=41	=41	=41	=41
1FF	2C]	0F	[0A	[0f
.	2AA	.	.	.
1r	1D	.	.	.
=42	=42	=42	=42	=42
1.FF	0C	0r	0A]	0f]
2GG	.	.	.	.
=43	=43	=43	=43	=43
1AA	1C	1.F	0r	0r
1BB-y	1D	.	.	.
.	.	2G	.	.
=44	=44	=44	=44	=44
2AA	2E	2A	0r	0r
2.D	2.F	2.B-y	.	.
4AA	4E	4A	.	.
2C	[2E	[2A	.	.
=45	=45	=45	=45	=45
1BB-y	2E]	2A]	0r	0r
.	2D	2G	.	.
[1AA	[1E	[1A	.	.
=46	=46	=46	=46	=46
1AA]	1E]	1A]	0c	1r
1r	1r	1A	.	[1f
=47	=47	=47	=47	=47
0r	0r	1B-y	1d	2f]
.	.	.	.	2g
.	.	2A	2e	2a
.	.	[2d	[2f	[2b-y
=48	=48	=48	=48	=48
0r	0r	4d]	4f]	4b-]
.	.	4A	4e	4a
.	.	2c	1e	1a
.	.	1B-y	.	.
.	.	.	2d	2g
=49	=49	=49	=49	=49
0r	1.c	0A	[0e	0a
.	2B-y	.	.	.
=50	=50	=50	=50	=50
1r	1A	1.c	0e]	0r
[1C	2.G	.	.	.
.	.	2B-y	.	.
.	4F	.	.	.
=51	=51	=51	=51	=51
2C]	4E	2.A	1r	0r
.	4D	.	.	.
2AA	2C	.	.	.
.	.	4F	.	.
2BB-y	2D	2G	2r	.
2C	[2E	[2A	[2c	.
=52	=52	=52	=52	=52
2.AA	4E]	4A]	2c]	0r
.	4D	4G	.	.
.	1C	1F	2A	.
4FF	.	.	.	.
1GG	.	.	2.B-y	.
.	2BB-y	2E	.	.
.	.	.	4c	.
=53	=53	=53	=53	=53
0FF	0C	0F	2A	1.cc
.	.	.	4F	.
.	.	.	4G	.
.	.	.	4A	.
.	.	.	4B-y	.
.	.	.	2c	2a
=54	=54	=54	=54	=54
0r	0r	2r	2d	2b-y
.	.	1c	2.e	2cc
.	.	.	.	2.a
.	.	.	4c	.
.	.	2A	[2f	.
.	.	.	.	4f
=55	=55	=55	=55	=55
0r	1r	2B-y	4f]	1g
.	.	.	4e	.
.	.	2c	4e	.
.	.	.	8dL	.
.	.	.	8eJ	.
.	2r	2.A	1f	1f
.	[2F	.	.	.
.	.	4B-y	.	.
=56	=56	=56	=56	=56
0r	2F]	2c	1r	2r
.	2D	2.d	.	2f
.	2E	.	2r	2g
.	.	4c	.	.
.	2F	[2c	[2f	[2a
=57	=57	=57	=57	=57
1r	1D	2c]	2f]	2a]
.	.	2B-y	2d	4g
.	.	.	.	4f
2r	1C	[1c	4e	2a
.	.	.	4c	.
[2C	.	.	[2e	2g
=58	=58	=58	=58	=58
2C]	2r	1c]	4e]	1e
.	.	.	4d	.
2AA	2C	.	2c	.
2BB-y	2D	1r	2B-y	2r
2C	[2E	.	[2A	[2cc
=59	=59	=59	=59	=59
2.AA	4E]	1r	4A]	2cc]
.	4D	.	4G	.
.	1C	.	1F	2a
4FF	.	.	.	.
1GG	.	1G	.	1b-y
.	2BB-y	.	2E	.
=60	=60	=60	=60	=60
1FF	2.C	2A	1F	2.a
.	.	2.c	.	.
.	4D	.	.	4f
1r	2E	.	1r	2g
.	.	4B-y	.	.
.	2F	4A	.	[2a
.	.	4G	.	.
=61	=61	=61	=61	=61
0r	1D	1F	1r	4a]
.	.	.	.	4g
.	.	.	.	1f
.	1C	1G	[1c	.
.	.	.	.	2e
=62	=62	=62	=62	=62
0r	1r	1F	1c]	[0f
.	[1c	1r	[1A	.
=63	=63	=63	=63	=63
0r	1c]	0F	2A]	0f]
.	.	.	2B-y	.
.	[1A	.	2c	.
.	.	.	[2d	.
=64	=64	=64	=64	=64
1r	1A]	1D	4d]	0r
.	.	.	4c	.
.	.	.	8dL	.
.	.	.	8c	.
.	.	.	8B-y	.
.	.	.	8AJ	.
[1C	1r	[1E	2G	.
.	.	.	2A	.
=65	=65	=65	=65	=65
1C]	0G	2E]	2G	0r
.	.	4D	1c	.
.	.	4C	.	.
1GG	.	1D	.	.
.	.	.	2Bni	.
=66	=66	=66	=66	=66
1AA	1E	1C	0c	1r
[1FF	[1A	2.F	.	1f
.	.	4G	.	.
=67	=67	=67	=67	=67
1FF]	2A]	4A	1r	1f
.	.	4B-y	.	.
.	2F	1c	.	.
1r	1G	.	2r	1d
.	.	2Bni	[2G	.
=68	=68	=68	=68	=68
0C	1r	0c	2G]	1.e
.	.	.	2A	.
.	[1G	.	2G	.
.	.	.	[2c	4d
.	.	.	.	4c
=69	=69	=69	=69	=69
1GG	1G]	0r	4c]	1d
.	.	.	4Bni	.
.	.	.	4Bni	.
.	.	.	8AL	.
.	.	.	8BniJ	.
1AA	1E	.	2c	[1c
.	.	.	[2A	.
=70	=70	=70	=70	=70
1FF	2.A	0r	4A]	0c_
.	.	.	4G	.
.	.	.	2F	.
.	4F	.	.	.
2r	2G	.	2E	.
[2F	2A	.	2F	.
=71	=71	=71	=71	=71
2F]	2G	1C	2r	1c]
2E	1A	.	1c	.
2F	.	2D	.	1r
2D	2F	[2F	2B-y	.
=72	=72	=72	=72	=72
1C	1G	2F]	4c	1r
.	.	.	4B-y	.
.	.	2E	4A	.
.	.	.	4G	.
1FF	2r	2.F	4A	1c
.	.	.	4F	.
.	[2F	.	[2f	.
.	.	4G	.	.
=73	=73	=73	=73	=73
1r	2F]	2A	4f]	2d
.	.	.	4e	.
.	2BB-y	2B-y	2d	2.f
2r	1C	1G	1c	.
.	.	.	.	4e
2C	.	.	.	4e
.	.	.	.	8dL
.	.	.	.	8eJ
=74	=74	=74	=74	=74
2.D	0r	0F	2A	[0f
.	.	.	2d	.
4E	.	.	.	.
2.F	.	.	2c	.
.	.	.	[2A	.
4E	.	.	.	.
=75	=75	=75	=75	=75
4D	1r	2r	2A]	1f]
4C	.	.	.	.
1BB-y	.	2F	1d	.
.	2r	2G	.	2r
2AA	2C	2A	2c	2f
=76	=76	=76	=76	=76
1GG	2.D	1B-y	2B-y	1g
.	.	.	4A	.
.	4E	.	4G	.
1FF	2.F	1A	2c	1a
.	.	.	[2f	.
.	4E	.	.	.
=77	=77	=77	=77	=77
0r	4D	2.d	4f]	2.b-y
.	4C	.	4e	.
.	1BB-y	.	2f	.
.	.	4c	.	4a
.	.	4B-y	2d	4g
.	.	4A	.	4f
.	2AA	2c	2e	[2a
=78	=78	=78	=78	=78
1r	1D	1F	2A	4a]
.	.	.	.	4g
.	.	.	2B-y	1f
2r	1C	1G	1c	.
2C	.	.	.	2e
=79	=79	=79	=79	=79
2.D	0r	0F	2A	[0f
.	.	.	2d	.
4E	.	.	.	.
2.F	.	.	2c	.
.	.	.	[2A	.
4E	.	.	.	.
=80	=80	=80	=80	=80
4D	1r	2r	2A]	1f]
4C	.	.	.	.
1BB-y	.	2F	1d	.
.	2r	2G	.	2r
2AA	2C	2A	2c	2f
=81	=81	=81	=81	=81
1GG	2.D	1B-y	2B-y	1g
.	.	.	4A	.
.	4E	.	4G	.
1FF	2.F	1A	2c	1a
.	.	.	[2f	.
.	4E	.	.	.
=82	=82	=82	=82	=82
0r	4D	2.d	4f]	2.b-y
.	4C	.	4e	.
.	1BB-y	.	2f	.
.	.	4c	.	4a
.	.	4B-y	2d	4g
.	.	4A	.	4f
.	2AA	2c	2e	[2a
=83	=83	=83	=83	=83
0r	1D	1F	2.A	4a]
.	.	.	.	4g
.	.	.	.	2.f
.	.	.	4B-y	.
.	1C	1G	4c	.
.	.	.	4B-y	4e
.	.	.	4A	4e
.	.	.	4G	8dL
.	.	.	.	8eJ
=	=	=	=	=
00FF	00C	00F	00A	00f
=||	=||	=||	=||	=||
*M2/1	*M2/1	*M2/1	*M2/1	*M2/1
*met(C)	*met(C)	*met(C)	*met(C)	*met(C)
!!Section: Secunda pars: Gaude gloriosa
!!!OMD: Secunda pars: Gaude gloriosa
0r	0r	0r	0c	0r
=84	=84	=84	=84	=84
0r	0r	0r	2.d	0f
.	.	.	4c	.
.	.	.	4d	.
.	.	.	4e	.
.	.	.	[2f	.
=85	=85	=85	=85	=85
0r	0r	0r	4f]	1a
.	.	.	4e	.
.	.	.	4d	.
.	.	.	4c	.
.	.	.	1d	1b-y
=86	=86	=86	=86	=86
0r	0F	0r	2.c	1.cc
.	.	.	4B-y	.
.	.	.	2A	.
.	.	.	2G	2b-y
=87	=87	=87	=87	=87
0r	1A	0r	2F	2.a
.	.	.	2A	.
.	.	.	.	4g
.	1B-y	.	4d	2f
.	.	.	4e	.
.	.	.	4f	2b-y
.	.	.	4d	.
=88	=88	=88	=88	=88
0C	0c	0r	2e	2.a
.	.	.	1f	.
.	.	.	.	8gL
.	.	.	.	8fJ
.	.	.	.	1g
.	.	.	2e	.
=89	=89	=89	=89	=89
2.D	0r	0F	1f	0f
4C	.	.	.	.
4D	.	.	2r	.
4E	.	.	.	.
[2F	.	.	[2c	.
=90	=90	=90	=90	=90
4F]	0F	1A	2c]	0r
4E	.	.	.	.
4D	.	.	2.d	.
4C	.	.	.	.
1D	.	1B-y	.	.
.	.	.	4e	.
.	.	.	4f	.
.	.	.	4d	.
=91	=91	=91	=91	=91
1C	1G	[0c	1e	0r
2r	[1A	.	1r	.
2FF	.	.	.	.
=92	=92	=92	=92	=92
2.AA	1A]	0c]	0r	0r
4BB-y	.	.	.	.
1C	1G	.	.	.
=93	=93	=93	=93	=93
1.D	1.F	1.B-y	0r	1r
.	.	.	.	2r
2C	[2E	2A	.	2c
=94	=94	=94	=94	=94
2BB-y	4E]	2G	0r	2e
.	4D	.	.	.
2AA	1C	1F	.	2f
1GG	.	.	.	1g
.	2BB-y	2E	.	.
=95	=95	=95	=95	=95
1FF	1C	1F	2r	1.a
.	.	.	2c	.
1r	2r	1r	2d	.
.	2C	.	[2e	[2g
=96	=96	=96	=96	=96
0r	2.E	0r	4e]	4g]
.	.	.	4d	4f
.	.	.	1c	2e
.	4F	.	.	.
.	1G	.	.	1d
.	.	.	2Bni	.
=97	=97	=97	=97	=97
[0FF	1.A	2r	1c	1c
.	.	2F	.	.
.	.	2.A	2r	2r
.	[2F	.	[2c	2f
.	.	4B-y	.	.
=98	=98	=98	=98	=98
0FF]	2F]	0c	4c]	2.a
.	.	.	4B-y	.
.	4E	.	4A	.
.	4D	.	4G	4b-y
.	2C	.	1A	2cc
.	2F	.	.	2a
=99	=99	=99	=99	=99
2GG	2D	1.B-y	1.G	2.b-y
1EE-X	1E-X	.	.	.
.	.	.	.	4a
.	.	.	.	2g
2FF	2C	2A	[2c	2f
=100	=100	=100	=100	=100
2C	2E	2G	2c]	2e
2D	2D	2F	2Bni	2.f
1C	2E	1G	1c	.
.	.	.	.	4e
.	[2C	.	.	4e
.	.	.	.	8dL
.	.	.	.	8eJ
=101	=101	=101	=101	=101
[0FF	2C]	1.A	1r	[0f
.	2.c	.	.	.
.	.	.	[1c	.
.	4B-y	.	.	.
.	4A	2F	.	.
.	4G	.	.	.
=102	=102	=102	=102	=102
0FF]	2A	1F	1c]	0f_
.	2F	.	.	.
.	[1c	1r	[1A	.
=103	=103	=103	=103	=103
0r	1c]	0F	2A]	0f]
.	.	.	2B-y	.
.	[1A	.	2c	.
.	.	.	[2d	.
=104	=104	=104	=104	=104
1r	1A]	1D	4d]	0r
.	.	.	4c	.
.	.	.	8dL	.
.	.	.	8c	.
.	.	.	8B-y	.
.	.	.	8AJ	.
[1C	1r	[1E	2G	.
.	.	.	2A	.
=105	=105	=105	=105	=105
1C]	0G	2E]	2G	0r
.	.	4D	1c	.
.	.	4C	.	.
1GG	.	1D	.	.
.	.	.	2Bni	.
=106	=106	=106	=106	=106
1AA	1E	1C	0c	1r
[1FF	[1A	2.F	.	[1f
.	.	4G	.	.
=107	=107	=107	=107	=107
1FF]	2A]	4A	1r	1f]
.	.	4B-y	.	.
.	2F	1c	.	.
1r	1G	.	2r	1d
.	.	2Bni	[2G	.
=108	=108	=108	=108	=108
0C	1r	0c	2G]	1.e
.	.	.	2A	.
.	[1G	.	2G	.
.	.	.	[2c	4d
.	.	.	.	4c
=109	=109	=109	=109	=109
1GG	1G]	0r	2c]	1d
.	.	.	2B-y	.
1AA	1E	.	2c	[1c
.	.	.	[2A	.
=110	=110	=110	=110	=110
1FF	2.A	0r	4A]	0c_
.	.	.	4G	.
.	.	.	2F	.
.	4F	.	.	.
2r	2G	.	2E	.
[2F	2A	.	2F	.
=111	=111	=111	=111	=111
2F]	2G	1C	2r	1c]
2E	1A	.	1c	.
2F	.	2D	.	1r
2D	2F	[2F	2B-y	.
=112	=112	=112	=112	=112
1C	1G	2F]	4c	1r
.	.	.	4B-y	.
.	.	2E	4A	.
.	.	.	4G	.
1FF	2r	2.F	4A	1c
.	.	.	4F	.
.	[2F	.	[2f	.
.	.	4G	.	.
=113	=113	=113	=113	=113
0r	2F]	2A	4f]	2d
.	.	.	4e	.
.	2BB-y	2B-y	2d	2.f
.	1C	1G	1c	.
.	.	.	.	4e
.	.	.	.	4e
.	.	.	.	8dL
.	.	.	.	8eJ
=114	=114	=114	=114	=114
0r	0F	1F	2A	0f
.	.	.	2.c	.
.	.	2r	.	.
.	.	.	4B-y	.
.	.	2F	4c	.
.	.	.	4A	.
=115	=115	=115	=115	=115
0r	0r	2G	2B-y	2r
.	.	2A	2c	2f
.	.	2B-y	2d	2g
.	.	2A	2e	2a
=116	=116	=116	=116	=116
0r	2r	2.d	2.f	2b-y
.	2F	.	.	2a
.	.	4c	4e	.
.	2G	2B-y	2d	4g
.	.	.	.	4f
.	2A	2A	[2c	[2f
=117	=117	=117	=117	=117
1r	2.B-y	1G	2c]	2f]
.	.	.	2B-y	2e
.	4G	.	.	.
2r	4A	1F	1c	1f
.	4B-y	.	.	.
2FF	4c	.	.	.
.	4A	.	.	.
=118	=118	=118	=118	=118
2GG	2B-y	0r	0r	2r
2AA	1A	.	.	2c
1BB-y	.	.	.	2.d
.	2G	.	.	.
.	.	.	.	4e
=119	=119	=119	=119	=119
1AA	1A	0r	2r	2f
.	.	.	1c	1e
1r	1r	.	.	.
.	.	.	[2d	[2a
=120	=120	=120	=120	=120
0r	0r	2r	4d]	4a]
.	.	.	4e	4g
.	.	2F	2f	2a
.	.	2G	2d	2b-y
.	.	2A	[2f	[2a
=121	=121	=121	=121	=121
0r	0r	1B-y	2f]	4a]
.	.	.	.	4f
.	.	.	4e	2g
.	.	.	4d	.
.	.	[1A	2.f	[1a
.	.	.	4e	.
=122	=122	=122	=122	=122
1r	1.c	1A]	1e	0a]
[1F	.	1r	1r	.
.	2B-y	.	.	.
=123	=123	=123	=123	=123
1F]	1A	0c	0r	0r
1E	1G	.	.	.
=124	=124	=124	=124	=124
2.D	2.F	1B-y	0r	0r
4BB-y	4D	.	.	.
2C	2E	[1A	.	.
[2D	[2F	.	.	.
=125	=125	=125	=125	=125
4D]	4F]	2A]	0r	0r
4C	4E	.	.	.
4BB-y	4D	4G	.	.
4AA	4C	4F	.	.
1BB-y	1D	2.G	.	.
.	.	4A	.	.
=126	=126	=126	=126	=126
0AA	0E	1A	1r	0cc
.	.	1c	1e	.
=127	=127	=127	=127	=127
0r	0r	2.d	2.f	1b-y
.	.	4B-y	4d	.
.	.	2c	2e	[1a
.	.	[2d	[2f	.
=128	=128	=128	=128	=128
0r	0r	4d]	4f]	2a]
.	.	4c	4e	.
.	.	4B-y	4d	4g
.	.	4A	4c	4f
.	.	2B-y	2d	1g
.	.	[2c	[2e	.
=129	=129	=129	=129	=129
2r	2r	2c]	2e]	2.a
1FF	1F	2A	1c	.
.	.	.	.	4g
.	.	2c	.	2a
[2BB-y	2D	[2d	2B-y	[2b-y
=130	=130	=130	=130	=130
4BB-]	1F	4d]	[0d	4b-]
4C	.	4c	.	4a
2D	.	2A	.	1a
1GG	1G	1B-y	.	.
.	.	.	.	2g
=131	=131	=131	=131	=131
0D	0F	0A	0d]	0a
=	=	=	=	=
*M3/1	*M3/1	*M3/1	*M3/1	*M3/1
*met(C|3)	*met(C|3)	*met(C|3)	*met(C|3)	*met(C|3)
0AA	0E	0A	0c	0a
1r	1r	1r	1r	1r
=132	=132	=132	=132	=132
0AA	0E	0A	1%3r	0r
1BB-y	1D	1G	.	1r
=133	=133	=133	=133	=133
1AA	1E	1A	1%3r	1%3r
0D	0F	0B-y	.	.
=134	=134	=134	=134	=134
1C	1E	1A	0r	1%3r
1.BB-y	1.D	1.G	.	.
.	.	.	1r	.
2AA	2C	2F	.	.
=135	=135	=135	=135	=135
1FF	0C	0F	1A	1%3r
0GG	.	.	0B-y	.
.	1BB-y	1E	.	.
=136	=136	=136	=136	=136
1FF	1C	0F	1A	0a
0BB-y	1r	.	1.d	.
.	1r	[1F	.	1g
.	.	.	2B-y	.
=137	=137	=137	=137	=137
1FF	1%3r	1F]	0c	1a
1C	.	1E	.	0b-y
[1D	.	[1F	1A	.
=138	=138	=138	=138	=138
1D]	1%3r	1F]	1B-y	1a
0C	.	0G	0c	1.g
.	.	.	.	2f
=139	=139	=139	=139	=139
0FF	0c	0F	0A	1.f
.	.	.	.	2e
1r	1B-y	1r	1r	1d
=140	=140	=140	=140	=140
1%3r	1A	0r	0c	1c
.	0G	.	.	0d
.	.	1r	1B-y	.
=141	=141	=141	=141	=141
1%3r	0C	0G	0e-X	0c
.	1r	1F	1d	1r
=142	=142	=142	=142	=142
1%3r	1%3r	1E	1c	0g
.	.	0D	1B-y	.
.	.	.	2A	1f
.	.	.	2B-y	.
=143	=143	=143	=143	=143
1%3r	1%3r	1C	0c	1e
.	.	1F	.	0d
.	.	1G	1Bni	.
=144	=144	=144	=144	=144
0C	0E	0A	1c	0c
.	.	.	1C	.
[1BB-y	[1D	[1B-y	1D	[1f
=145	=145	=145	=145	=145
2BB-]	2D]	0.B-]	0F	1f]
2AA	2C	.	.	.
0GG	0BB-y	.	.	0g
.	.	.	1E	.
=146	=146	=146	=146	=146
1FF	1C	1A	1F	1a
0BB-y	0D	0d	0f	0b-y
=147	=147	=147	=147	=147
0C	0E	1.c	0e	1a
.	.	.	.	1.g
.	.	2B-y	.	.
1D	1F	1A	[1d	.
.	.	.	.	2f
=148	=148	=148	=148	=148
1BB-y	1D	1B-y	1d]	0f
0C	1E	0G	0c	.
.	1C	.	.	1e
=149	=149	=149	=149	=149
0FF	0c	0F	0A	1.f
.	.	.	.	2e
1r	1B-y	1r	1r	1d
=150	=150	=150	=150	=150
1%3r	1A	1%3r	0c	1c
.	0G	.	.	0d
.	.	.	1B-y	.
=151	=151	=151	=151	=151
1%3r	0C	0G	0e-X	0c
.	1r	1F	1d	1r
=152	=152	=152	=152	=152
1%3r	1%3r	1E	1c	0g
.	.	0D	1B-y	.
.	.	.	2A	1f
.	.	.	2B-y	.
=153	=153	=153	=153	=153
1%3r	1%3r	1C	0c	1e
.	.	1F	.	0d
.	.	1G	1Bni	.
=154	=154	=154	=154	=154
0C	0E	0A	1c	0c
.	.	.	1C	.
[1BB-y	[1D	[1B-y	1D	[1f
=155	=155	=155	=155	=155
2BB-]	2D]	0.B-]	0F	1f]
2AA	2C	.	.	.
0GG	0BB-y	.	.	0g
.	.	.	1E	.
=156	=156	=156	=156	=156
1FF	1C	1A	1F	1a
0BB-y	0D	0d	0f	0b-y
=157	=157	=157	=157	=157
0C	0E	1.c	0e	1a
.	.	.	.	1.g
.	.	2B-y	.	.
1D	1F	1A	[1d	.
.	.	.	.	2f
=158	=158	=158	=158	=158
1BB-y	1D	1B-y	1d]	0f
0C	1E	0G	0c	.
.	1C	.	.	1e
=	=	=	=	=
*M2/1	*M2/1	*M2/1	*M2/1	*M2/1
*met(C|)	*met(C|)	*met(C|)	*met(C|)	*met(C|)
1FF	2D	[0Fl	1A	[0fl
.	1C	.	.	.
1FF	.	.	1c	.
.	[2F	.	.	.
=159	=159	=159	=159	=159
0BB-y	4F]	0F_	0B-y	0f_
.	4E	.	.	.
.	4D	.	.	.
.	4C	.	.	.
.	1D	.	.	.
=160	=160	=160	=160	=160
00FFl	00Cl	00F]	00Al	00f]
==	==	==	==	==
*-	*-	*-	*-	*-
!!!system-decoration: [*]
!!!RDF**kern: i = editorial accidental
!!!RDF**kern: l = terminal long
!!!ENC: Benjamin Ory
!!!END: 2022/5/5
!!!EED: Benjamin Ory
!!!EEV: 2022/05/05
!!!YEC: Copyright 2022 Benjamin Ory, All Rights Reserved
!!!ONB: Translated from MusicXML on 2022/05/05
